X: 5
T: After The Battle Of Aughrim
R: polka
M: 2/4
L: 1/8
K: Ador
AG|:E2A2 ABcd | e2d2 c2 A2 | B2G2 GFGA | (3BAG AG EGDG |E2A2 ABcd | ea2g eaed | B2e2dBGB |1 A2AB A4 :|2 A2AB A4||a3g efge | abag e2 fg | a3fg3e | dedB G4| abag efge | abag eaed | B2e2 dBGB |1 A2AB A4 :|2 A2AB A2||


Tune 1308	Setting 14640

